X:993
T:Vals efter Jöns Persson
T:(SvL Skåne nr. 55)
R:Vals
Z:Patrik Månsson, 2009-01-12
O:Roalöv, Skåne
S:efter Jöns Persson
S:Svenska Låtar Skåne
B:Svenska Låtar Skåne
M:3/4
L:1/8
K:D

|: FA | d2 fe fa | a2 gf ed | ce Ac ec | dA FA ce |
d2 fe fa | a2 ga b2 | ge cA Bc | d2 :|
|: (3(Adf) | a2 af df | b2 bf gc | e2 eA Bc |
dF Ad fd | a2 af df | b2 bf fc | e2 eA Bc | d2 :|
|: fa | ge ce ge | fd Ad fd | ec Ac ec |
dF Ad fa | ge ce ge | fd Ad fd | ec Ac ec | d2 :|


(:musicend:)

(:music:)
